src/assets/outline/Driver.svg

<svg width="24" height="24" viewBox="0 0 24 24"  xmlns="http://www.w3.org/2000/svg">
<path d="M19.3198 10.7498H4.68977C2.79977 10.7498 1.25977 9.20978 1.25977 7.31978V4.68977C1.25977 2.79977 2.79977 1.25977 4.68977 1.25977H19.3198C21.2098 1.25977 22.7498 2.79977 22.7498 4.68977V7.31978C22.7498 9.20978 21.2098 10.7498 19.3198 10.7498ZM4.67976 2.74977C3.60976 2.74977 2.74977 3.61976 2.74977 4.67976V7.30977C2.74977 8.37977 3.61976 9.23978 4.67976 9.23978H19.3098C20.3798 9.23978 21.2398 8.36977 21.2398 7.30977V4.67976C21.2398 3.60976 20.3698 2.74977 19.3098 2.74977H4.67976Z" />
<path d="M19.3198 22.7498H4.68977C2.79977 22.7498 1.25977 21.2098 1.25977 19.3198V16.6898C1.25977 14.7998 2.79977 13.2598 4.68977 13.2598H19.3198C21.2098 13.2598 22.7498 14.7998 22.7498 16.6898V19.3198C22.7498 21.2098 21.2098 22.7498 19.3198 22.7498ZM4.67976 14.7498C3.60976 14.7498 2.74977 15.6198 2.74977 16.6798V19.3098C2.74977 20.3798 3.61976 21.2398 4.67976 21.2398H19.3098C20.3798 21.2398 21.2398 20.3698 21.2398 19.3098V16.6798C21.2398 15.6098 20.3698 14.7498 19.3098 14.7498H4.67976Z" />
<path d="M6 7.75C5.59 7.75 5.25 7.41 5.25 7V5C5.25 4.59 5.59 4.25 6 4.25C6.41 4.25 6.75 4.59 6.75 5V7C6.75 7.41 6.41 7.75 6 7.75Z" />
<path d="M10 7.75C9.59 7.75 9.25 7.41 9.25 7V5C9.25 4.59 9.59 4.25 10 4.25C10.41 4.25 10.75 4.59 10.75 5V7C10.75 7.41 10.41 7.75 10 7.75Z" />
<path d="M6 19.75C5.59 19.75 5.25 19.41 5.25 19V17C5.25 16.59 5.59 16.25 6 16.25C6.41 16.25 6.75 16.59 6.75 17V19C6.75 19.41 6.41 19.75 6 19.75Z" />
<path d="M10 19.75C9.59 19.75 9.25 19.41 9.25 19V17C9.25 16.59 9.59 16.25 10 16.25C10.41 16.25 10.75 16.59 10.75 17V19C10.75 19.41 10.41 19.75 10 19.75Z" />
<path d="M18 6.75H14C13.59 6.75 13.25 6.41 13.25 6C13.25 5.59 13.59 5.25 14 5.25H18C18.41 5.25 18.75 5.59 18.75 6C18.75 6.41 18.41 6.75 18 6.75Z" />
<path d="M18 18.75H14C13.59 18.75 13.25 18.41 13.25 18C13.25 17.59 13.59 17.25 14 17.25H18C18.41 17.25 18.75 17.59 18.75 18C18.75 18.41 18.41 18.75 18 18.75Z" />
</svg>

<?xml version="1.0" encoding="UTF-8"?>
<svg width="24" height="24" viewBox="0 0 24 24" xmlns="http://www.w3.org/2000/svg">
 <path d="m19.32 10.75h-14.63c-1.89 0-3.43-1.54-3.43-3.43v-2.63c0-1.89 1.54-3.43 3.43-3.43h14.63c1.89 0 3.43 1.54 3.43 3.43v2.63c0 1.89-1.54 3.43-3.43 3.43zm-14.64-8c-1.07 0-1.93 0.86999-1.93 1.93v2.63c0 1.07 0.86999 1.93 1.93 1.93h14.63c1.07 0 1.93-0.87001 1.93-1.93v-2.63c0-1.07-0.87-1.93-1.93-1.93h-14.63z"/>
 <path d="m19.32 22.75h-14.63c-1.89 0-3.43-1.54-3.43-3.43v-2.63c0-1.89 1.54-3.43 3.43-3.43h14.63c1.89 0 3.43 1.54 3.43 3.43v2.63c0 1.89-1.54 3.43-3.43 3.43zm-14.64-8c-1.07 0-1.93 0.87-1.93 1.93v2.63c0 1.07 0.86999 1.93 1.93 1.93h14.63c1.07 0 1.93-0.87 1.93-1.93v-2.63c0-1.07-0.87-1.93-1.93-1.93h-14.63z"/>
 <path d="m6 7.75c-0.41 0-0.75-0.34-0.75-0.75v-2c0-0.41 0.34-0.75 0.75-0.75s0.75 0.34 0.75 0.75v2c0 0.41-0.34 0.75-0.75 0.75z"/>
 <path d="m10 7.75c-0.41 0-0.75-0.34-0.75-0.75v-2c0-0.41 0.34-0.75 0.75-0.75s0.75 0.34 0.75 0.75v2c0 0.41-0.34 0.75-0.75 0.75z"/>
 <path d="m6 19.75c-0.41 0-0.75-0.34-0.75-0.75v-2c0-0.41 0.34-0.75 0.75-0.75s0.75 0.34 0.75 0.75v2c0 0.41-0.34 0.75-0.75 0.75z"/>
 <path d="m10 19.75c-0.41 0-0.75-0.34-0.75-0.75v-2c0-0.41 0.34-0.75 0.75-0.75s0.75 0.34 0.75 0.75v2c0 0.41-0.34 0.75-0.75 0.75z"/>
 <path d="m18 6.75h-4c-0.41 0-0.75-0.34-0.75-0.75s0.34-0.75 0.75-0.75h4c0.41 0 0.75 0.34 0.75 0.75s-0.34 0.75-0.75 0.75z"/>
 <path d="m18 18.75h-4c-0.41 0-0.75-0.34-0.75-0.75s0.34-0.75 0.75-0.75h4c0.41 0 0.75 0.34 0.75 0.75s-0.34 0.75-0.75 0.75z"/>
</svg>
